X: 27182
T: Miss Monaghan
R: reel
M: 4/4
K: Dmajor
|:AF|D2FD FAAF|G2BG FAA2|dedB ABde|fedf ecAF|
D2FD FAAF|G2BG FAAB|dedB ABdB|AFEF D2:|
|:de|fgab afdf|gefd edBc|dedB ABde|fedf e2de|
fgab afdf|g2fg edBc|dedB ABdB|AFEF D2:|

